;
;(PART NO & REV :- MCS_MAIN)
;(PROGRAM DATE -  7-Jul-2023 TIME - 14:06)
;(POST NAME - DMU 210P-REV-01)
N1 M18
;
;(TOOL DETAILS DIA=5.00 RAD=0.00 TAPER=0.00 LEN=66.00)
;(HOLDER DIA=16.50 HOLDER LEN=10.00)
;(OPERATION NAME :- CD_FOR_Ø8_DOWEL)
N2 L_FREI
N3 L_ZYM91
N4 DYNFINISH
N5 ORISON
N6 TRAFOOF
N7 CYCLE800()
N8 G53 G0 Z1250. D0
N9 G53 G0 X1050. Y0.
N10 G53 G0 B0. C0.
N11 T="DIA5CENTREDRILL"
N12 M6
N13 L_39(0,0)
N14 D1
N15 M200
N16 M23
N17 M11
N18 G0 B0. C0.
N19 M10
N20 M22
N21 G17 G54
N22 G00 G90 C0.0 B0.0
N23 M23
N24 M11
N25 G94 S800 M3
N26 
N27 DM_ATC(3,2,0.001,0.01,0,0,0,0,0)
N28 DYNFINISH
N29 ORISON
N30 X204.8 Y-143.4 B0. C0.
N31 Z50.
N32 M10
N33 M22
N34 F150.
N35 MCALL CYCLE81(50,0,3,-2)
N36 X204.8 Y-143.4
N37 X-204.8 Y-143.4
N38 MCALL
N39 M9
N40 M5
N41 L_FREI
N42 L_ZYM91
N43 DM_ATC(0,3,0,0,0,0,0,0,0)
N44 M01
;****************************************
;(TOOL DETAILS DIA=7.50 RAD=0.00 TAPER=0.00 LEN=91.00)
;(HOLDER DIA=16.50 HOLDER LEN=10.00)
N45 L_FREI
N46 L_ZYM91
N47 DYNFINISH
N48 ORISON
N49 TRAFOOF
N50 CYCLE800()
N51 G53 G0 Z1250. D0
N52 G53 G0 X1050. Y0.
N53 G53 G0 B0. C0.
N54 T="DIA7.5SCDRILL"
N55 M6
N56 L_39(0,0)
N57 D1
N58 M200
N59 M23
N60 M11
N61 G0 B0. C0.
N62 M10
N63 M22
N64 G17 G54
N65 G00 G90 C0.0 B0.0
N66 M23
N67 M11
N68 G94 S2000 M3
N69 M8
N70 DM_ATC(3,2,0.001,0.01,0,0,0,0,0)
N71 DYNFINISH
N72 ORISON
N73 X204.8 Y-143.4 
N74 Z50.
N75 M10
N76 M22
N77 F250.
N78 MCALL CYCLE81(50,0,3,-20.8649,,0,0,1,12)
N79 X204.8 Y-143.4
N80 X-204.8 Y-143.4
N81 MCALL
N82 M9
N83 M5
N84 L_FREI
N85 L_ZYM91
N86 DM_ATC(0,3,0,0,0,0,0,0,0)
N87 M01
;(TOOL DETAILS DIA=7.80 RAD=0.00 TAPER=0.00 LEN=91.00)
;(HOLDER DIA=16.50 HOLDER LEN=10.00)
N88 L_FREI
N89 L_ZYM91
N90 DYNFINISH
N91 ORISON
N92 TRAFOOF
N93 CYCLE800()
N94 G53 G0 Z1250. D0
N95 G53 G0 X1050. Y0.
N96 G53 G0 B0. C0.
N97 T="DIA7.8HOLEMILL"
N98 M6
N99 L_39(0,0)
N100 D1
N101 M1
;
;(OPERATION NAME :- HOLE_MILL_FOR_Ø8_DOWEL)
;(PART STOCK :- 0.00)
;(FLOOR STOCK :- 0.00)
;(IN TOL :- 0.030)
;(OUT TOL :- 0.030)
N102 M200
N103 M23
N104 M11
N105 G0 B0. C0.
N106 M10
N107 M22
N108 G17 G54
N109 G00 G90 C0.0 B0.0
N110 M23
N111 M11
N112 G94 S800 M3
N113 M8
N114 DM_ATC(3,2,0.001,0.01,0,0,0,0,0)
N115 DYNFINISH
N116 ORISON
N117 X204.8 Y-143.4 B0. C0.
N118 Z50.
N119 M10
N120 M22
N121 F50.
N122 MCALL CYCLE81(50,0,3,-19.4195,,0,0,1,12)
N123 X204.8 Y-143.4
N124 X-204.8 Y-143.4
N125 MCALL
N126 M9
N127 M5
N128 L_FREI
N129 L_ZYM91
N130 DM_ATC(0,3,0,0,0,0,0,0,0)
N131 M01
N132 ;(TOOL DETAILS DIA=7.80 RAD=0.00 TAPER=0.00 LEN=91.00)
;(HOLDER DIA=16.50 HOLDER LEN=10.00)
N133 L_FREI
N134 L_ZYM91
N135 DYNFINISH
N136 ORISON
N137 TRAFOOF
N138 CYCLE800()
N139 G53 G0 Z1250. D0
N140 G53 G0 X1050. Y0.
N141 G53 G0 B0. C0.
N142 T="DIA11CROWNDRILL"
N143 M6
N144 L_39(0,0)
N145 D1
N146 M200
N147 M23
N148 M11
N149 G0 B0. C0.
N150 M10
N151 M22
N152 G17 G54
N153 G00 G90 C0.0 B0.0
N154 M23
N155 M11
N156 G94 S800 M3
N157 M8
N158 DM_ATC(3,2,0.001,0.01,0,0,0,0,0)
N159 DYNFINISH
N160 ORISON
N161 X204.8 Y-143.4 
N162 Z50.
N163 M10
N164 M22
N165 F150.
N166 MCALL CYCLE81(50,0,3,-2,,0,0,1,12)
N167 X204.8 Y-143.4
N168 X-204.8 Y-143.4
N169 MCALL
N170 M9
N171 M5
N172 L_FREI
N173 L_ZYM91
N174 DM_ATC(0,3,0,0,0,0,0,0,0)
N175 M01
;(TOOL DETAILS DIA=8.00 RAD=0.00 TAPER=0.00 LEN=100.00)
;(HOLDER DIA=16.50 HOLDER LEN=10.00)
N176 L_FREI
N177 L_ZYM91
N178 DYNFINISH
N179 ORISON
N180 TRAFOOF
N181 CYCLE800()
N182 G53 G0 Z1250. D0
N183 G53 G0 X1050. Y0.
N184 G53 G0 B0. C0.
N185 T="DIA8.0REMAR"
N186 M6
N187 L_39(0,0)
N188 D1
N189 M200
N190 M23
N191 M11
N192 G0 B0. C0.
N193 M10
N194 M22
N195 G17 G54
N196 G00 G90 C0.0 B0.0
N197 M23
N198 M11
N199 G94 S500 M3
N200 M8
N201 DM_ATC(3,2,0.001,0.01,0,0,0,0,0)
N202 DYNFINISH
N203 ORISON
N204 X204.8 Y-143.4 
N205 Z50.
N206 M10
N207 M22
N208 F50.
N209 MCALL CYCLE85(50,0,3,-15,,0,50,50,,1,12)
N210 X204.8 Y-143.4
N211 X-204.8 Y-143.4
N212 MCALL
N213 M9
N214 M5
N215 L_FREI
N216 L_ZYM91
N217 DM_ATC(0,3,0,0,0,0,0,0,0)
N218 M01
;*****************************************************************
;;(OPERATION NAME :- FINISH_MILL)
;(TOOL DETAILS DIA=125.00 RAD=0.00 TAPER=0.00 LEN=200.00)
;(HOLDER DIA=0.00 HOLDER LEN=0.00)
N219 L_FREI
N220 L_ZYM91
N221 DYNFINISH
N222 ORISON
N223 TRAFOOF
N224 CYCLE800()
N225 G53 G0 Z1250. D0
N226 G53 G0 X1050. Y0.
N227 G53 G0 B0. C0.
N228 T="DIA125FINISHCUTTER"
N229 M6
N230 L_39(0,0)
N231 D1
N232 M200
N233 G17 G54
N234 G00 G90 C0.0 B0.0
N235 M23
N236 M11
N237 M10
N238 M22
N239 G94 S600 M3
N240 M8
N241 DM_ATC(3,2,0.001,0.01,0,0,0,0,0)
N242 DYNFINISH
N243 ORISON
N244 G0 X0. Y-338.
N245 Z11.05
N246 Z4.05
N247 G1 G90 Z-0.03 F250.
N248 Y-275.5
N249 G2 I0. J275.5
N250 G1 Y-338.
N251 Z4.05
N252 G0 Z11.05
N253 M9
N254 M5
N255 L_FREI
N256 L_ZYM91
N257 M23
N258 M11
N259 DM_ATC(0,3,0,0,0,0,0,0,0)
N260 M01
;************************************************************************

N276 L_FREI
N277 L_ZYM91
N278 DYNFINISH
N279 ORISON
N280 TRAFOOF
N281 CYCLE800()
N282 G53 G0 Z1250. D0
N283 G53 G0 X1050. Y0.
N284 G53 G0 B0. C0.
N285 T="DIA5CENTREDRILL"
N286 M6
N287 L_39(0,0)
N288 D1
;(OPERATION NAME :- CDFOR8H7)
N289 M200
N290 G17 G54
N291 G00 G90 C0.0 B0.0
N292 M23
N293 M11
N294 CYCLE800(4,"TC1",200000,39,0,0,0,0,0,0,0,0,0,1,100,1)
N295 M10
N296 M22
N297 G94 S700 M3
N298 M8
N299 DM_ATC(3,2,0.001,0.01,0,0,0,0,0)
N300 DYNFINISH
N301 ORISON
N302 G0 X-221.376 Y-155.009
N303 Z289.5
N304 F50.
N305 MCALL CYCLE81(289.5,0,3,-0.1,,0,0,0,12)
N306 X-221.376 Y-155.009
N307 X-155.009 Y221.376
N308 MCALL
N309 M9
N310 M5
N311 L_FREI
N312 L_ZYM91
N313 M23
N314 M11
N315 CYCLE800()
N316 CYCLE800()
N317 DM_ATC(0,3,0,0,0,0,0,0,0)
N318 M01
N319 M30
